X:1
T:Rest If You Will
T:Rest If You Will
T:Charles Edward Pollock
T:Frances Jane (Fanny) Crosby, 1897
T:Public Domain Courtesy of the Cyber Hymnal™
T:Public Domain Courtesy of the Cyber Hymnal™
C:Charles Edward Pollock
Z:Public Domain
Z:Courtesy of the Cyber Hymnal™
%%score ( 1 2 ) ( 3 4 )
L:1/8
Q:1/4=106
M:4/4
K:G
V:1 treble 
V:2 treble 
V:3 bass 
V:4 bass 
V:1
 (Bc) | [Gd]2 [Ge][Gd] [GB]2 [DG][DG] | [EA]2 [EG][CE] [B,D]3 [DG] | %3
w: 1.~O *|why are you cling- ing to|earth’s fad- ing flow’rs, Tho’|
w: 2.~O *|why are you dream- ing of|hopes that are frail, That|
w: 3.~O *|why are you slight- ing the|voice of the Lord, Re-|
w: 4.~O *|why are you wait- ing when|time flies a- pace? Take|
 [GB]2 [GB][GB] [Gd]2 [GB][DA] | [DG]2 [DA][GB] [FA]3 [Fd] | [Gd]2 [Ge][Gd] [GB]2 [DG][=FG] | %6
w: fra- grant its blos- soms and|love- ly its bow’rs? The|cold breath of win- ter will|
w: die like the leaf- let when|tossed by the gale? The|heart’s wear- y long- ings the|
w: fus- ing to fol- low His|life giv- ing Word? No|love like the Sav- ior’s your|
w: heed that ye spurn not God’s|mes- sage of grace; O|trust not the plea- sures that|
 [EA]2 [EG][CE] [B,D]3 [DG] | [GB]2 [Gc][Gc] [GB][DA][DG]G | [EA]2 [DG][DF] [DG]4 || %9
w: sweep them a- way, Then|why from your fa- ther- land, O|why will you stay?|
w: world can- not still, And|yet in the Sav- ior you may|rest if you will.|
w: lone hearts can fill, That|love is in- vit- ing you to|rest if you will.|
w: charm to de- ceive, But|come to the Sav- ior and, re-|pent- ing, be- lieve.|
"^Refrain" B6 GA | B6 [Gd][Gd] | d6 [FA][Fc] | B6 (Bc) | [Gd]2 [Ge][Gd] [GB]3 G | %14
w: |||||
w: Why will you|stay? Je- sus|calls you to-|day, Your *|poor ach- ing hearts for|
w: |||||
w: |||||
 [EA][EG][CE][CG] [B,D]3 [DG] | [GB]2 [Gc][Gc] [GB][DA][DG]G | [EA]2 [DG][DF] [DG]4 |] %17
w: |||
w: rest are long- ing still, And|yet in His mer- cy you may|rest if you will.|
w: |||
w: |||
V:2
 G2 | x8 | x8 | x8 | x8 | x8 | x8 | x7 G | x8 || (G2 GG G2) x2 | (G2 GG G2) x2 | (F2 FF F2) x2 | %12
 (G2 GG G2) G2 | x7 G | x8 | x7 G | x8 |] %17
V:3
 (G,A,) | [G,B,]2 [G,C][G,B,] [G,D]2 [G,B,][G,B,] | [C,C]2 [C,C][C,G,] [G,,G,]3 [G,B,] | %3
w: ~ *|~ ~ ~ ~ ~ ~|~ ~ ~ ~ ~|
 [G,D]2 [G,D][G,D] [G,B,]2 [G,D][G,C] | [G,B,]2 [F,D][G,D] [D,D]3 [D,C] | %5
w: ~ ~ ~ ~ ~ ~|~ ~ ~ ~ ~|
 [G,B,]2 [G,C][G,B,] [G,D]2 [G,B,][G,D] | [C,C]2 [C,C][C,G,] [G,,G,]3 [G,B,] | %7
w: ~ ~ ~ ~ ~ ~|~ ~ ~ ~ ~|
 [G,D]2 [G,E][G,E] [G,D][G,C][G,B,][B,,D] | [C,C]2 [D,B,][D,A,] [G,,B,]4 || D6 B,C | %10
w: ~ ~ ~ ~ ~ ~ ~|~ ~ ~ ~|Why will you|
 D6 [G,B,][G,B,] | A,6 [D,D][D,D] | D6 [G,D]2 | [G,B,]2 [G,C][G,B,] [G,D]3 [B,,D] | %14
w: stay? ~ ~|Why will you|stay? Je-|sus calls you to- day,|
 [C,C][C,C][C,G,][E,G,] G,3 [G,B,] | [G,D]2 [G,E][G,E] [G,D][G,C][G,B,][B,,D] | %16
w: Je- sus calls you to- day,||
 [C,C]2 [D,B,][D,A,] [G,,B,]4 |] %17
w: |
V:4
 G,2 | x8 | x8 | x8 | x8 | x8 | x8 | x8 | x8 || G,2 G,G, G,2 x2 | G,2 G,G, G,2 x2 | %11
 D,2 D,D, D,2 x2 | G,2 G,G, G,2 x2 | x8 | x4 G,3 x | x8 | x8 |] %17

